src/apps/scalable/distributor-logo-raspbian.svg

<?xml version="1.0" encoding="UTF-8" standalone="no"?>
<svg
   width="64"
   height="64"
   viewBox="0 0 16.933 16.933"
   version="1.1"
   id="svg3"
   sodipodi:docname="distributor-logo-raspbian.svg"
   inkscape:version="1.3.2 (091e20ef0f, 2023-11-25, custom)"
   xmlns:inkscape="http://www.inkscape.org/namespaces/inkscape"
   xmlns:sodipodi="http://sodipodi.sourceforge.net/DTD/sodipodi-0.dtd"
   xmlns:xlink="http://www.w3.org/1999/xlink"
   xmlns="http://www.w3.org/2000/svg"
   xmlns:svg="http://www.w3.org/2000/svg">
  <defs
     id="defs3">
    <filter
       inkscape:collect="always"
       style="color-interpolation-filters:sRGB"
       id="filter1057"
       x="-0.026999999"
       width="1.054"
       y="-0.026999999"
       height="1.054">
      <feGaussianBlur
         inkscape:collect="always"
         stdDeviation="0.61875"
         id="feGaussianBlur1059" />
    </filter>
    <linearGradient
       inkscape:collect="always"
       xlink:href="#linearGradient1051"
       id="linearGradient1053"
       x1="-127"
       y1="60"
       x2="-72"
       y2="5"
       gradientUnits="userSpaceOnUse"
       gradientTransform="matrix(0.26457812,0,0,0.26457812,34.792023,-0.13493423)" />
    <linearGradient
       inkscape:collect="always"
       id="linearGradient1051">
      <stop
         style="stop-color:#ff7d50;stop-opacity:1"
         offset="0"
         id="stop1047" />
      <stop
         id="stop951"
         offset="0.50594032"
         style="stop-color:#ff4b5a;stop-opacity:1" />
      <stop
         style="stop-color:#ff509b;stop-opacity:1"
         offset="1"
         id="stop1049" />
    </linearGradient>
  </defs>
  <sodipodi:namedview
     id="namedview3"
     pagecolor="#ffffff"
     bordercolor="#000000"
     borderopacity="0.25"
     inkscape:showpageshadow="2"
     inkscape:pageopacity="0.0"
     inkscape:pagecheckerboard="0"
     inkscape:deskcolor="#d1d1d1"
     inkscape:zoom="6.15625"
     inkscape:cx="14.781726"
     inkscape:cy="27.77665"
     inkscape:window-width="1920"
     inkscape:window-height="995"
     inkscape:window-x="0"
     inkscape:window-y="0"
     inkscape:window-maximized="1"
     inkscape:current-layer="svg3" />
  <rect
     ry="15"
     y="4.4999995"
     x="4.4999995"
     height="55"
     width="55"
     id="rect1055"
     style="opacity:0.3;fill:#141414;fill-opacity:1;stroke-width:2.74436;stroke-linecap:round;filter:url(#filter1057)"
     transform="scale(0.26457812)" />
  <rect
     style="fill:url(#linearGradient1053);fill-opacity:1;stroke-width:0.726098;stroke-linecap:round"
     id="rect1045"
     width="14.551796"
     height="14.551796"
     x="1.1906021"
     y="1.1906021"
     ry="3.9686716" />
  <g
     stroke-width=".103"
     id="g3">
    <path
       fill="#282828"
       d="M6.946 4.233a.236.236 0 0 0-.14.058c-.129-.05-.253-.067-.364.034-.172-.022-.227.023-.27.077-.037 0-.282-.039-.394.128-.281-.033-.37.166-.269.351-.057.089-.117.177.018.347-.048.094-.019.197.093.32-.03.134.029.227.133.3-.02.181.167.287.222.325.021.105.066.206.278.261.035.158.163.185.287.218-.409.238-.76.55-.757 1.318l-.06.107c-.468.285-.89 1.2-.23 1.946.042.233.114.4.179.585.096.747.724 1.097.89 1.138.242.185.5.36.85.483.33.34.688.47 1.047.47h.015c.36 0 .717-.13 1.047-.47.35-.123.608-.298.85-.483.166-.04.794-.391.89-1.138.065-.185.137-.352.18-.585.66-.745.238-1.661-.231-1.946l-.06-.108c.003-.767-.348-1.08-.757-1.317.124-.033.252-.06.287-.219.212-.055.257-.154.278-.26.056-.038.242-.144.222-.325.104-.073.162-.167.133-.3.112-.124.141-.226.094-.32.134-.17.074-.258.017-.347.1-.185.012-.384-.27-.35-.112-.168-.356-.13-.393-.129-.043-.054-.098-.1-.27-.077-.11-.1-.235-.084-.363-.034-.152-.12-.253-.024-.368.013-.184-.06-.226.022-.317.055-.2-.042-.261.05-.358.148l-.112-.003c-.303.179-.453.543-.506.73-.054-.187-.204-.551-.507-.73l-.112.003c-.097-.098-.158-.19-.359-.148-.09-.033-.132-.116-.316-.055-.076-.024-.145-.074-.227-.071zM8.463 6.61c.394-.003.881.294.88.575-.003.248-.343.448-.876.445-.523-.007-.875-.253-.874-.493.001-.198.427-.538.87-.527zm-1.34.167c.089 0 .18.007.273.022.273.046-1.313 1.43-1.337 1.121-.022-.705.449-1.131 1.065-1.143zm2.598.024c.616.012 1.087.438 1.065 1.143-.024.31-1.61-1.076-1.336-1.122.093-.016.183-.022.271-.02zm-.262.86a1.019.864 55.966 0 1 .67 1.823 1.019.864 55.966 1 1-1.123-1.7 1.019.864 55.966 0 1 .453-.123zm-1.945.048a.864 1.019 34.034 0 1 .415.122.864 1.019 34.034 1 1-1.124 1.7.864 1.019 34.034 0 1 .672-1.822.864 1.019 34.034 0 1 .037 0zm3.399.526c.715.408.59 1.316.205 1.626-.35.156-.636-1.742-.205-1.626zm-4.978.024c.43-.116.146 1.781-.204 1.626-.386-.31-.51-1.218.204-1.626zM8.51 9.476a.963.888 0 0 1 .94.893.963.888 0 1 1-1.926 0 .963.888 0 0 1 .986-.893zm2.105.335a.316.316 0 0 1 .209.068c.17.17.27.812-.029 1.196-.412.572-.97.594-1.178.435-.217-.205-.05-.842.247-1.19.256-.29.525-.503.75-.51zm-4.323.136c.243.01.533.202.77.477.275.332.401.915.171 1.087-.217.131-.745.077-1.12-.462-.254-.453-.22-.913-.043-1.048a.389.389 0 0 1 .222-.054zm2.199 1.59c.387-.017.905.124.906.312.007.182-.47.594-.932.586-.478.02-.947-.392-.941-.535-.007-.21.582-.373.967-.363z"
       id="path2" />
    <path
       fill="#75a928"
       d="M6.957 4.445c.042.052.1.104.039.163a.92.92 0 0 0-.377-.147c.046.052.141.104.083.156a1.562 1.562 0 0 0-.359-.09c.063.053.116.105.064.146-.115-.036-.274-.085-.43-.043l.099.1c.01.014-.23.01-.39.013.058.082.118.161.152.302-.015.016-.094.007-.168 0 .076.163.208.204.239.273-.047.036-.111.027-.182.003.055.115.17.193.261.287-.023.016-.063.026-.158.014.084.091.185.174.305.248-.02.025-.094.025-.162.026.109.109.25.165.38.236-.065.045-.112.034-.162.034.093.077.251.118.398.165-.028.044-.056.056-.116.068.156.087.378.048.441.092-.015.044-.058.072-.109.096.25.015.934-.009 1.065-.535-.256-.285-.723-.62-1.525-1.034.624.213 1.188.496 1.66.885.555-.263.173-.924-.098-1.187-.014.07-.03.113-.048.126-.088-.096-.16-.194-.273-.286 0 .054.027.112-.041.155a.802.802 0 0 0-.252-.22c.052.092.008.12-.02.158-.083-.072-.162-.146-.316-.203zm3.037 0c-.153.057-.233.131-.316.204-.028-.039-.072-.066-.02-.158a.802.802 0 0 0-.252.22c-.067-.043-.04-.102-.04-.156-.114.092-.186.19-.274.286-.018-.012-.034-.056-.048-.126-.27.263-.653.925-.098 1.187.472-.39 1.037-.673 1.662-.885-.804.414-1.27.749-1.527 1.035.131.525.815.549 1.065.534-.051-.024-.094-.052-.109-.096.063-.044.286-.005.44-.092-.059-.012-.087-.024-.115-.068.147-.047.305-.088.398-.165-.05 0-.097.011-.162-.034.131-.07.271-.127.38-.236-.068 0-.141 0-.162-.025.12-.075.221-.158.305-.248-.095.011-.135.001-.158-.015.091-.093.206-.172.261-.287-.07.024-.135.034-.182-.002.031-.07.163-.111.24-.274-.075.007-.154.016-.17 0 .035-.14.095-.22.153-.302-.16-.002-.4 0-.39-.013l.099-.1c-.156-.042-.315.006-.43.043-.052-.041 0-.093.064-.146a1.562 1.562 0 0 0-.36.09c-.057-.052.038-.104.084-.156a.92.92 0 0 0-.376.147c-.063-.06-.004-.11.038-.162z"
       id="path3" />
  </g>
</svg>

<?xml version="1.0" encoding="UTF-8" standalone="no"?>
<svg
   width="64"
   height="64"
   viewBox="0 0 16.933 16.933"
   version="1.1"
   id="svg3"
   sodipodi:docname="raspberry-pi-modern.svg"
   inkscape:version="1.4.2 (2aeb623e1d, 2025-05-12)"
   xmlns:inkscape="http://www.inkscape.org/namespaces/inkscape"
   xmlns:sodipodi="http://sodipodi.sourceforge.net/DTD/sodipodi-0.dtd"
   xmlns:xlink="http://www.w3.org/1999/xlink"
   xmlns="http://www.w3.org/2000/svg"
   xmlns:svg="http://www.w3.org/2000/svg">
  <sodipodi:namedview
     id="namedview1"
     pagecolor="#ffffff"
     bordercolor="#000000"
     borderopacity="0.25"
     inkscape:showpageshadow="2"
     inkscape:pageopacity="0.0"
     inkscape:pagecheckerboard="0"
     inkscape:deskcolor="#d1d1d1"
     inkscape:zoom="5.2030095"
     inkscape:cx="23.544066"
     inkscape:cy="19.315744"
     inkscape:window-width="1374"
     inkscape:window-height="831"
     inkscape:window-x="0"
     inkscape:window-y="0"
     inkscape:window-maximized="1"
     inkscape:current-layer="g3" />
  <defs
     id="defs3">
    <filter
       style="color-interpolation-filters:sRGB"
       id="filter1057"
       x="-0.026999999"
       width="1.054"
       y="-0.026999999"
       height="1.054">
      <feGaussianBlur
         stdDeviation="0.61875"
         id="feGaussianBlur1059" />
    </filter>
    <linearGradient
       xlink:href="#linearGradient1051"
       id="linearGradient1053"
       x1="-127"
       y1="60"
       x2="-72"
       y2="5"
       gradientUnits="userSpaceOnUse"
       gradientTransform="matrix(0.26457812,0,0,0.26457812,34.792023,-0.13493423)" />
    <linearGradient
       id="linearGradient1051">
      <stop
         style="stop-color:#f50000;stop-opacity:1;"
         offset="0"
         id="stop1047" />
      <stop
         style="stop-color:#fe4b69;stop-opacity:1;"
         offset="1"
         id="stop1049" />
    </linearGradient>
  </defs>
  <rect
     ry="15"
     y="4.4999995"
     x="4.4999995"
     height="55"
     width="55"
     id="rect1055"
     style="opacity:0.3;fill:#141414;fill-opacity:1;stroke-width:2.74436;stroke-linecap:round;filter:url(#filter1057)"
     transform="scale(0.26457812)" />
  <rect
     style="fill:url(#linearGradient1053);fill-opacity:1;stroke-width:0.726098;stroke-linecap:round"
     id="rect1045"
     width="14.551796"
     height="14.551796"
     x="1.1906021"
     y="1.1906021"
     ry="3.9686716" />
  <g
     stroke-width="0.103"
     id="g3"
     style="display:inline">
    <path
       fill="#282828"
       d="M 6.946,4.233 C 6.8942263,4.2364176 6.8450219,4.2568023 6.806,4.291 6.677,4.241 6.553,4.224 6.442,4.325 6.27,4.303 6.215,4.348 6.172,4.402 6.135,4.402 5.89,4.363 5.778,4.53 5.497,4.497 5.408,4.696 5.509,4.881 5.452,4.97 5.392,5.058 5.527,5.228 5.479,5.322 5.508,5.425 5.62,5.548 5.59,5.682 5.649,5.775 5.753,5.848 5.733,6.029 5.92,6.135 5.975,6.173 5.996,6.278 6.041,6.379 6.253,6.434 6.288,6.592 6.416,6.619 6.54,6.652 6.131,6.89 5.78,7.202 5.783,7.97 l -0.06,0.107 c -0.468,0.285 -0.89,1.2 -0.23,1.946 0.042,0.233 0.114,0.4 0.179,0.585 0.096,0.747 0.724,1.097 0.89,1.138 0.242,0.185 0.5,0.36 0.85,0.483 0.33,0.34 0.688,0.47 1.047,0.47 h 0.015 c 0.36,0 0.717,-0.13 1.047,-0.47 0.35,-0.123 0.608,-0.298 0.85,-0.483 0.166,-0.04 0.794,-0.391 0.89,-1.138 0.065,-0.185 0.137,-0.352 0.18,-0.585 0.66,-0.745 0.238,-1.661 -0.231,-1.946 L 11.15,7.969 C 11.153,7.202 10.802,6.889 10.393,6.652 10.517,6.619 10.645,6.592 10.68,6.433 10.892,6.378 10.937,6.279 10.958,6.173 11.014,6.135 11.2,6.029 11.18,5.848 c 0.104,-0.073 0.162,-0.167 0.133,-0.3 0.112,-0.124 0.141,-0.226 0.094,-0.32 0.134,-0.17 0.074,-0.258 0.017,-0.347 0.1,-0.185 0.012,-0.384 -0.27,-0.35 C 11.042,4.363 10.798,4.401 10.761,4.402 10.718,4.348 10.663,4.302 10.491,4.325 10.381,4.225 10.256,4.241 10.128,4.291 9.976,4.171 9.875,4.267 9.76,4.304 9.576,4.244 9.534,4.326 9.443,4.359 9.243,4.317 9.182,4.409 9.085,4.507 L 8.973,4.504 C 8.67,4.683 8.52,5.047 8.467,5.234 8.413,5.047 8.263,4.683 7.96,4.504 L 7.848,4.507 C 7.751,4.409 7.69,4.317 7.489,4.359 7.399,4.326 7.357,4.243 7.173,4.304 7.097,4.28 7.028,4.23 6.946,4.233 Z M 8.463,6.61 C 8.857,6.607 9.344,6.904 9.343,7.185 9.34,7.433 9,7.633 8.467,7.63 7.944,7.623 7.592,7.377 7.593,7.137 7.594,6.939 8.02,6.599 8.463,6.61 Z m -1.34,0.167 c 0.089,0 0.18,0.007 0.273,0.022 C 7.669,6.845 6.083,8.229 6.059,7.92 6.037,7.215 6.508,6.789 7.124,6.777 Z m 2.598,0.024 c 0.616,0.012 1.087,0.438 1.065,1.143 C 10.762,8.254 9.176,6.868 9.45,6.822 9.543,6.806 9.633,6.8 9.721,6.802 Z m -0.262,0.86 c 0.921518,0.033086 1.403124,1.3434834 0.67,1.823 C 9.1607402,10.155836 8.0029184,8.4031225 9.006,7.784 9.1372282,7.6977698 9.2938388,7.6552464 9.459,7.661 Z M 7.514,7.709 C 7.6652062,7.71012 7.8078957,7.752065 7.929,7.831 8.8924155,8.4626892 7.7684155,10.162689 6.805,9.531 6.0737242,9.0500472 6.5563244,7.7415685 7.477,7.709 c 0.012371,-2.713e-4 0.024707,-2.713e-4 0.037,0 z m 3.399,0.526 c 0.715,0.408 0.59,1.316 0.205,1.626 -0.35,0.156 -0.636,-1.742 -0.205,-1.626 z M 5.935,8.259 C 6.365,8.143 6.081,10.04 5.731,9.885 5.345,9.575 5.221,8.667 5.935,8.259 Z M 8.51,9.476 c 0.5249615,0.011556 0.9431063,0.4087939 0.94,0.893 0,1.184 -1.926,1.184 -1.926,0 C 7.5207869,9.8682066 7.9670555,9.4640302 8.51,9.476 Z m 2.105,0.335 c 0.07556,-0.00307 0.149714,0.021056 0.209,0.068 0.17,0.17 0.27,0.812 -0.029,1.196 -0.412,0.572 -0.97,0.594 -1.178,0.435 C 9.4,11.305 9.567,10.668 9.864,10.32 10.12,10.03 10.389,9.817 10.614,9.81 Z M 6.292,9.947 c 0.243,0.01 0.533,0.202 0.77,0.477 0.275,0.332 0.401,0.915 0.171,1.087 C 7.016,11.642 6.488,11.588 6.113,11.049 5.859,10.596 5.893,10.136 6.07,10.001 6.1369266,9.9611845 6.214263,9.9423729 6.292,9.947 Z m 2.199,1.59 c 0.387,-0.017 0.905,0.124 0.906,0.312 0.007,0.182 -0.47,0.594 -0.932,0.586 C 7.987,12.455 7.518,12.043 7.524,11.9 7.517,11.69 8.106,11.527 8.491,11.537 Z"
       id="path2"
       style="display:inline;fill:#ffffff;fill-opacity:1" />
    <path
       fill="#75a928"
       d="M 6.957,4.445 C 6.999,4.497 7.057,4.549 6.996,4.608 6.8828001,4.5316286 6.7540188,4.4814142 6.619,4.461 6.665,4.513 6.76,4.565 6.702,4.617 6.586323,4.5728787 6.4658105,4.5426666 6.343,4.527 6.406,4.58 6.459,4.632 6.407,4.673 6.292,4.637 6.133,4.588 5.977,4.63 l 0.099,0.1 C 6.086,4.744 5.846,4.74 5.686,4.743 5.744,4.825 5.804,4.904 5.838,5.045 5.823,5.061 5.744,5.052 5.67,5.045 5.746,5.208 5.878,5.249 5.909,5.318 5.862,5.354 5.798,5.345 5.727,5.321 5.782,5.436 5.897,5.514 5.988,5.608 5.965,5.624 5.925,5.634 5.83,5.622 5.914,5.713 6.015,5.796 6.135,5.87 6.115,5.895 6.041,5.895 5.973,5.896 6.082,6.005 6.223,6.061 6.353,6.132 6.288,6.177 6.241,6.166 6.191,6.166 6.284,6.243 6.442,6.284 6.589,6.331 6.561,6.375 6.533,6.387 6.473,6.399 6.629,6.486 6.851,6.447 6.914,6.491 6.899,6.535 6.856,6.563 6.805,6.587 7.055,6.602 7.739,6.578 7.87,6.052 7.614,5.767 7.147,5.432 6.345,5.018 6.969,5.231 7.533,5.514 8.005,5.903 8.56,5.64 8.178,4.979 7.907,4.716 7.893,4.786 7.877,4.829 7.859,4.842 7.771,4.746 7.699,4.648 7.586,4.556 7.586,4.61 7.613,4.668 7.545,4.711 7.4773978,4.6207686 7.3915302,4.5458048 7.293,4.491 7.345,4.583 7.301,4.611 7.273,4.649 7.19,4.577 7.111,4.503 6.957,4.446 Z m 3.037,0 C 9.841,4.502 9.761,4.576 9.678,4.649 9.65,4.61 9.606,4.583 9.658,4.491 9.5594698,4.5458048 9.4736022,4.6207686 9.406,4.711 9.339,4.668 9.366,4.609 9.366,4.555 9.252,4.647 9.18,4.745 9.092,4.841 9.074,4.829 9.058,4.785 9.044,4.715 8.774,4.978 8.391,5.64 8.946,5.902 9.418,5.512 9.983,5.229 10.608,5.017 9.804,5.431 9.338,5.766 9.081,6.052 9.212,6.577 9.896,6.601 10.146,6.586 10.095,6.562 10.052,6.534 10.037,6.49 10.1,6.446 10.323,6.485 10.477,6.398 10.418,6.386 10.39,6.374 10.362,6.33 10.509,6.283 10.667,6.242 10.76,6.165 c -0.330032,0.028019 0.111421,-0.1922283 0.218,-0.27 -0.068,0 -0.141,0 -0.162,-0.025 0.12,-0.075 0.221,-0.158 0.305,-0.248 -0.095,0.011 -0.135,0.001 -0.158,-0.015 0.091,-0.093 0.206,-0.172 0.261,-0.287 -0.07,0.024 -0.135,0.034 -0.182,-0.002 0.031,-0.07 0.163,-0.111 0.24,-0.274 -0.075,0.007 -0.154,0.016 -0.17,0 0.035,-0.14 0.095,-0.22 0.153,-0.302 -0.16,-0.002 -0.4,0 -0.39,-0.013 l 0.099,-0.1 c -0.156,-0.042 -0.315,0.006 -0.43,0.043 -0.052,-0.041 0,-0.093 0.064,-0.146 -0.12315,0.015589 -0.244002,0.045802 -0.36,0.09 C 10.191,4.564 10.286,4.512 10.332,4.46 10.197329,4.4805571 10.068904,4.5307658 9.956,4.607 9.893,4.547 9.952,4.497 9.994,4.445 Z"
       id="path3"
       style="display:inline;opacity:1;mix-blend-mode:normal;fill:#f20d35;fill-opacity:1;fill-rule:nonzero" />
  </g>
</svg>
